X: 31143
T: Paddy Fahey's
R: reel
M: 4/4
K: Dmixolydian
|:A,DFA d2 dB|cdcG ECCB,|A,DFA d^cde|fge^c Add^c|
dedF E3B|cdcG ECCB,|A,DFA d2AF|ED^CE D2 FA|
d3e ^cAA^c|BGGB A2 Bc|d^cdA ^cdeg|fddA ^cde^c|
dfdB ^ce^cA|BdBG A^ceg|fd^ce d^cAB|^cedB ^cAGE:|

